assets/home.svg

<svg width="24" height="27" viewBox="0 0 24 27" fill="none" xmlns="http://www.w3.org/2000/svg">
<path d="M7.76923 26H2C1.44772 26 1 25.5523 1 25V10.3741C1 10.0677 1.14046 9.77822 1.38113 9.58861L11.6471 1.5003C12.0174 1.20848 12.5414 1.21505 12.9043 1.51606L22.6384 9.58897C22.8674 9.77896 23 10.0611 23 10.3587V25C23 25.5523 22.5523 26 22 26H16.2308M7.76923 26V15.8631C7.76923 15.5953 7.87669 15.3386 8.06754 15.1507L9.7337 13.5097C9.92078 13.3255 10.1728 13.2222 10.4354 13.2222H13.5646C13.8272 13.2222 14.0792 13.3255 14.2663 13.5097L15.9325 15.1507C16.1233 15.3386 16.2308 15.5953 16.2308 15.8631V26M7.76923 26H16.2308" stroke="black" stroke-width="2"/>
</svg>

<svg xmlns="http://www.w3.org/2000/svg" width="24" height="27" fill="none"><path stroke="#000" stroke-width="2" d="M7.77 26H2a1 1 0 0 1-1-1V10.374a1 1 0 0 1 .381-.785L11.647 1.5a1 1 0 0 1 1.257.016l9.734 8.073a1 1 0 0 1 .362.77V25a1 1 0 0 1-1 1h-5.77m-8.46 0V15.863a1 1 0 0 1 .298-.712l1.666-1.641a1 1 0 0 1 .701-.288h3.13a1 1 0 0 1 .701.288l1.666 1.64a1 1 0 0 1 .299.713V26m-8.462 0h8.462"/></svg>
